X: 30908
T: Over The Edge
R: jig
M: 6/8
K: Adorian
P:A
"Am"EAE A2 B|"C"cBA G2 A|"D"FEF FEF|"D"AGF EFD|
"Am"EAE A2 B|"C"cBA G2 A|"D"FEF AGF|"Em"E6:|
P:B
|:"C"e3 edc|"G"d2 B GAB|"Am"c2 c B2 A|"Em"BGE EFG|
"D"A3 ABc|"G"d2 B GAB|"Am"cBc "G"dBG|1 "Am"ABA Acd:|2 "Am"A6||

